X:49
T:Blue Bonnets Ow'r the Border
R:Country Dance
B:The Athole Collection
M:6/8
L:1/8
K:B_
B,3 B,>CD|B>cd B2F|BGG G2g|g>fd c2B|B,3 B,>CD|B>(3c/d/c/) BGF|
G3 FDF|FBD C2B:|
|:Bdf fdB|gfd c2B|Bdf g>ab|B>(3c/d/e/) c2B|Bdf fdB|gfd cBc|G3 FDF|
FBD C2B:|

